www/assets/icons/mobile_screen_share.svg

<svg width="24" height="24" viewBox="0 0 24 24" xmlns="http://www.w3.org/2000/svg" fill='currentColor'><path d="M16.995 1.01L6.995 1C5.895 1 5.005 1.9 5.005 3V21C5.005 22.1 5.895 23 6.995 23H16.995C18.095 23 18.995 22.1 18.995 21V3C18.995 1.9 18.095 1.01 16.995 1.01ZM16.995 19H6.995V5H16.995V19ZM12.795 13.22V14.97L15.995 11.98L12.795 9V10.7C9.68501 11.13 8.445 13.26 7.995 15.4C9.105 13.9 10.575 13.22 12.795 13.22Z"/></svg>

<svg xmlns="http://www.w3.org/2000/svg" width="24" height="24" viewBox="0 0 24 24" fill='currentColor'><path d="m16.995 1.01-10-.01c-1.1 0-1.99.9-1.99 2v18c0 1.1.89 2 1.99 2h10c1.1 0 2-.9 2-2V3c0-1.1-.9-1.99-2-1.99m0 17.99h-10V5h10zm-4.2-5.78v1.75l3.2-2.99-3.2-2.98v1.7c-3.11.43-4.35 2.56-4.8 4.7 1.11-1.5 2.58-2.18 4.8-2.18"/></svg>
